X:1
T:Title
%%score { ( 1 3 ) | ( 2 4 5 ) }
L:1/8
M:4/4
K:Bb
V:1 treble nm="Grand Piano"
V:3 treble 
V:2 bass 
V:4 bass 
V:5 bass 
V:1
 z4 z2[Q:1/4=94] F>F | [DFd]2 A>B [DFc]2 [DB]>D | [DG]2 G>G [DG]2 [F,DF]2 | [DA]2 B>B [DFc]2 B>G | %4
 B2- [CEB]2 [CEA]2 c>d | [FAe]2 A>B [EFc]2 G>A |[M:3/4] [EB]2 [F,CEF]2 [CFA]2 |[M:1/4] [CEB]2 | %8
[M:4/4] [CFc]2 c>c [CFAc]2 [DFGB]2 |[M:3/4] [CFA]2 [B,=EG]2 [F,A,CF]2 |[M:1/4] c>d | %11
[M:4/4] e2 F>G FF [FB]>[Fc] | [Fd]2 [DF]>[DG] [DF]2 [DB]2 | z4 z2 [Gc]2 | [^Fd]6 [Fd]2 | %15
 [Fe]2 F>G FF [FB]>[Fc] | [Fd]2 [DF]>[EG] [DF]2 [FB]2 | [Gc]2 [Gd]>[Ge] dd c2 |[M:3/4] [DB]6 |] %19
V:2
 z8 | [B,,F,]2 [F,,F,]2 [B,,F,]2 [F,,F,]2 | [B,,F,]2 [F,,F,]2 [B,,F,]2 z z/ G/ | %3
 [B,,F,]2 [F,,F,]2 [B,,F,]2 [F,,F,]2 | [C,F,C]2 [F,,F,]2 [C,F,]2 [F,,F,]2 | %5
 [C,F,]2 [F,,F,]2 [A,,F,]2 [F,,F,]2 |[M:3/4] [C,F,C]2 z z/ G/ F,2 |[M:1/4] [G,,G,]2 | %8
[M:4/4] [A,,A,]2 [G,,G,]2 [F,,F,]2 B,,2 |[M:3/4] C,2 C,2 F,,2 |[M:1/4] [F,A,F]>[F,B,F] | %11
[M:4/4] [F,CF]2 [F,A,E]>[F,A,E] [F,A,E][E,C] [D,B,]>[F,A,] | %12
 [B,,B,]2 [B,,B,]>[B,,B,] [B,,B,]2 [_A,B,]2 | [G,B,]2 [F,D]>[F,D] [E,E][E,E] .[E,B,]2 | %14
 z2 z A,- A,2 z2 | [C,A,]2 [F,A,E]>[F,A,E] [F,A,E][E,C] [D,B,]>[F,A,] | %16
 [B,,B,]2 [B,,B,]>[B,,B,] [B,,B,]2 [D,B,]2 | [E,B,]2 [E,B,]>[E,B,] [F,B,F][F,B,F] [F,A,E]2 | %18
[M:3/4] [B,,B,]6 |] %19
V:3
 x8 | z2 [DF]2 z2 F2 | z2 D2 z4 | z2 [DF]2 z2 [DF]2 | E2 z2 z2 [FA]2 | z2 [EF]2 z2 [CE]2 | %6
[M:3/4] x6 |[M:1/4] x2 |[M:4/4] z2 [C=EB]2 z4 |[M:3/4] x6 |[M:1/4] x2 |[M:4/4] x8 | x8 | %13
 [EB]2 [_AB]>[AB] [GB][GB] z G, | x8 | x8 | x8 | x8 |[M:3/4] x6 |] %19
V:4
 x8 | x8 | z4 z2 F,,2 | x8 | x8 | x8 |[M:3/4] z2 F,,2 z2 |[M:1/4] x2 |[M:4/4] x8 |[M:3/4] x6 | %10
[M:1/4] x2 |[M:4/4] x8 | x8 | x8 | A,2- [^F,A,]2 D,2 [D,A,]2 | x8 | x8 | x8 |[M:3/4] x6 |] %19
V:5
 x8 | x8 | x8 | x8 | x8 | x8 |[M:3/4] x6 |[M:1/4] x2 |[M:4/4] x8 |[M:3/4] x6 |[M:1/4] x2 | %11
[M:4/4] x8 | x8 | x8 | D, D,3 z4 | x8 | x8 | x8 |[M:3/4] x6 |] %19

